_includes/icons/ios-creative-commons.svg

<svg fill="#666" height="50" viewBox="0 0 50 50" width="50" xmlns="http://www.w3.org/2000/svg"><path d="m25 2c-12.691406 0-23 10.308594-23 23s10.308594 23 23 23 23-10.308594 23-23-10.308594-23-23-23zm0 2c11.609375 0 21 9.390625 21 21s-9.390625 21-21 21-21-9.390625-21-21 9.390625-21 21-21zm-7.875 13.125c-4.113281 0-6.6875 2.949219-6.6875 7.75 0 4.789063 2.578125 7.75 6.6875 7.75 3.300781 0 5.746094-1.953125 6.15625-4.875h-2.3125c-.410156 1.671875-1.886719 2.71875-3.84375 2.71875-2.664062 0-4.3125-2.148437-4.3125-5.59375 0-3.457031 1.65625-5.625 4.3125-5.625 1.949219 0 3.414063 1.183594 3.84375 3h2.3125c-.367187-3.015625-2.894531-5.125-6.15625-5.125zm16.28125 0c-4.113281 0-6.6875 2.949219-6.6875 7.75 0 4.789063 2.578125 7.75 6.6875 7.75 3.300781 0 5.714844-1.953125 6.125-4.875h-2.28125c-.410156 1.671875-1.886719 2.71875-3.84375 2.71875-2.664062 0-4.34375-2.148437-4.34375-5.59375 0-3.457031 1.6875-5.625 4.34375-5.625 1.949219 0 3.414063 1.183594 3.84375 3h2.3125c-.367187-3.015625-2.894531-5.125-6.15625-5.125z"/></svg>

<svg xmlns="http://www.w3.org/2000/svg" viewBox="0 0 50 50" width="50" height="50" fill="#666"><path d="M 25 2 C 12.308594 2 2 12.308594 2 25 C 2 37.691406 12.308594 48 25 48 C 37.691406 48 48 37.691406 48 25 C 48 12.308594 37.691406 2 25 2 Z M 25 4 C 36.609375 4 46 13.390625 46 25 C 46 36.609375 36.609375 46 25 46 C 13.390625 46 4 36.609375 4 25 C 4 13.390625 13.390625 4 25 4 Z M 17.125 17.125 C 13.011719 17.125 10.4375 20.074219 10.4375 24.875 C 10.4375 29.664063 13.015625 32.625 17.125 32.625 C 20.425781 32.625 22.871094 30.671875 23.28125 27.75 L 20.96875 27.75 C 20.558594 29.421875 19.082031 30.46875 17.125 30.46875 C 14.460938 30.46875 12.8125 28.320313 12.8125 24.875 C 12.8125 21.417969 14.46875 19.25 17.125 19.25 C 19.074219 19.25 20.539063 20.433594 20.96875 22.25 L 23.28125 22.25 C 22.914063 19.234375 20.386719 17.125 17.125 17.125 Z M 33.40625 17.125 C 29.292969 17.125 26.71875 20.074219 26.71875 24.875 C 26.71875 29.664063 29.296875 32.625 33.40625 32.625 C 36.707031 32.625 39.121094 30.671875 39.53125 27.75 L 37.25 27.75 C 36.839844 29.421875 35.363281 30.46875 33.40625 30.46875 C 30.742188 30.46875 29.0625 28.320313 29.0625 24.875 C 29.0625 21.417969 30.75 19.25 33.40625 19.25 C 35.355469 19.25 36.820313 20.433594 37.25 22.25 L 39.5625 22.25 C 39.195313 19.234375 36.667969 17.125 33.40625 17.125 Z"/></svg>
